!!!COM: Mozart
!!!OTL: 8 Variationen uber das Lied "Ein Weib ist das herrlichste Ding"
!!!Variation: Theme d
**function	**harm	**kern	**kern
*	*	*clefF4	*clefG2
*	*	*k[b-]	*k[b-]
*M3/4	*M3/4	*M3/4	*M3/4
*F:	*F:	*F:	*F:
=33	=33	=33	=33
2.T	2.I	2F	(4f
.	.	.	4c)
.	.	4r	4f
=34	=34	=34	=34
*	*	*	*^
2.T	2.V	2C	(4g	4e
.	.	.	4c)	4r
.	.	4r	4g	4r
*	*	*	*v	*v
=35	=35	=35	=35
4T	4I	(4F	(4a
4T	4vi	4D	4f)
*	*	*	*^
4T	4iib	4BB-)	4g	4b-
=36	=36	=36	=36	=36
4T	4Cc	2C	(4f	4a
2T	2V	.	4e)	4g
*	*	*	*v	*v
.	.	4r	4cc
=37	=37	=37	=37
4T	4Ib	(4A 4f	(4cc
4T	4viiob	4G 4e	4b-
4T	4I	4F) 4f	4a)
=38	=38	=38	=38
2P	2IV	4B-	(4f 4dd
.	.	4r	4d) 4b-
4P	4iib	4BB-	4B- 4g
=39	=39	=39	=39
*	*	*^	*
4D	4Cc	(4A	2.C	(4f
2D	2V	4E	.	4g
*	*	*	*	*^
.	.	4G)	.	4cc)	4e
=40	=40	=40	=40	=40	=40
2T	2I	2F	2FF	(4b-	4g
.	.	.	.	4a)	4f
4T	4V	4r	4r	4cc'	4a
*	*	*v	*v	*	*
=41	=41	=41	=41	=41
2.T	2.I	(4F 4A	(4cc	4a
.	.	4G 4B-	4b-	4g
.	.	4A) 4c	4a)	4f
=42	=42	=42	=42	=42
2T	2IV	4B- 4d	(4dd	4f
.	.	4r	4b-)	4d
4T	4iib	4BB-	4g	4B-
*	*	*	*v	*v
=43	=43	=43	=43
*	*	*^	*
4T	4Ic	(4A	2C	(4f
2T	2V7	4B-)	.	4g)
.	.	4G	4C	4e'
=44	=44	=44	=44	=44
2T	2I	4A	4F	4f'
*	*	*v	*v	*
.	.	4FF	4r
*-	*-	*-	*-
